X:1
Q:1/4=80
L:1/8
M:1/4
K:C clef=G2
V:1
%%MIDI program 2
[^AD]z/2[A^D]15/32|[^AF]15/8|[FD]15/8|[^A-G][^A-]/2[^F-^A]3/8|
[^A-F-]2|[^AF]7/4z7/32|[F-d][F-]/2[c-F]3/8|[^AF]15/8|
[AF]15/8|[G^D]15/8|[FD]2|F31/16|
[F-c][F-]/2[d-F]3/8|[^d^D]15/8|[dF]15/8|[c-G][c-]/2[^F-c]3/8|
[^AF]15/8|[AF]15/8|[^AF]15/8|
L:1/8
M:1/4
K:C clef=F4
V:2
%%MIDI program 0
[F,-^A,,][F,-]/2[C,-F,]3/8|[^A,D,]15/8|[^A,^A,,]15/8|[^D,-^A,][^D,-]/2[C-^D,]3/8|
[^A,,-D-]2|[^A,,D]7/4z7/32|[^A,^A,,]z/2[A,C,]15/32|[^A,D,]15/8|
[^A,-^D,]15/16[F,-^A,]7/8|[^A,G,]15/16[CA,]15/16|[D^A,]31/16|[CA,]15/8|
[^A,^G,]15/8|[^A,G,]15/8|[^A,F,]15/8|[^D,-G,][^D,-]/2[A,-^D,]3/8|
[^A,D,]15/8|[^DC,]15/8|[^A,,-D][^A,,-]/2[^A,-^A,,]3/8|
Q:1/4=53
L:1/8
M:1/4
K:C clef=G2
V:1
%%MIDI program 2
[c-F-]2|[cF]7/4(5:4z/4
L:1/8
M:1/4
K:C clef=F4
V:2
%%MIDI program 0
[A,-F,-]2|[A,F,]7/4z/4
Q:1/4=80
L:1/8
M:1/4
K:C clef=G2
V:1
%%MIDI program 2
[F-A][F-]/2[^A-F]3/8|[cF]15/8|F15/8|[dF]15/8|
[cF]31/16|[cF]7/4(5:4z/4|[F-A][F-]/2[^A-F]3/8|[cF]15/8|
[cG]15/8|[d-G][d-]/2[F-d]3/8|[^d^D]15/8|[^F^d]7/4|
[cF]15/8|[fF]15/8|[F-^d]15/16[d-F]7/8|[F-c]15/16[^A-F]7/8|
[FD]15/8|[^AF]15/8|[A^D]15/8|[^AG]31/16|
[^AF]31/16|[^A^D]31/16|[^AF]31/16|[^AF]7/4
L:1/8
M:1/4
K:C clef=F4
V:2
%%MIDI program 0
[C-F,][C-]/2[G,-C]3/8|[CA,]15/8|[A,F,]15/8|^A,15/8|
[A,F,]31/16|[A,F,]7/4(5:4z/4|[F,-C][F,-]/2[^A,-F,]3/8|[A,F,]15/8|
[A,^D,]15/8|[B,D,]15/8|[C,C]31/16|[C,^A,]15/8|
[A,-F,][A,-]/2[^D,-A,]3/8|[^A,D,]15/8|[^A,^A,,]15/8|[^A,D,]15/8|
[^A,F,]15/8|[DF,]15/8|[CF,]15/8|[^A,,^D]31/16|
[^A,,D]31/16|[^A,,C]31/16|[^A,,D]31/16|[^A,,D]7/4


